X:181
T: WENN ICH AUF WAPPUSHOF GEH
N: Z0180
O: Europa, Mitteleuropa, Deutschland, Franken
R: Romanze
M: 3/8
L: 1/16
K: F
F2zAA2 | E2zGG2 | F4z2 |
A2c2fc | c3BGB | F4z2 |
c2cfc2 | B2GgB2 |
A2FcA2 | GFGAG2 |
F2A2A2 | c2B2Bd | c6 |
FAcfc2 | c3BGB | A6

@@@ Tune index: 9939
